assets/graphics/game_note_fuusen.svg

<?xml version="1.0" encoding="UTF-8"?>
<svg id="fuusen" xmlns="http://www.w3.org/2000/svg" viewBox="0 0 440 120">
  <g id="Body">
    <path id="Body_Outter" data-name="Body Outter" d="M383.779,102.125c-14.471,0-28.251-6.88-40.41-12.949-9.755-4.871-18.97-9.676-26.578-9.676h-26.791v4.5h-28V36h28v5h26.791c7.587,0,16.794-4.443,26.542-9.544,12.165-6.366,25.953-13.581,40.446-13.581,26.682,0,48.39,18.897,48.39,42.125s-21.708,42.125-48.39,42.125Z" fill="#1d1d1d"/>
    <path id="Body_Inner" data-name="Body Inner" d="M383.779,97.875c-13.468,0-26.771-6.641-38.508-12.5l-1.422-.71c-9.677-4.842-18.816-9.415-27.059-9.415h-29.291v-30h29.291c8.636,0,18.415-4.744,28.513-10.028,11.731-6.139,25.027-13.097,38.476-13.097,24.339,0,44.14,16.991,44.14,37.875s-19.801,37.875-44.14,37.875Z" fill="#f94310"/>
    <polygon id="Neck_Inner" data-name="Neck Inner" points="269 79.25 285.5 79.25 285.5 40.75 269 40.75 262 60 269 79.25" fill="#f96b12"/>
  </g>
  <circle id="Circle_Outter" data-name="Circle Outter" cx="220" cy="60" r="52.5" fill="#1d1d1d"/>
  <circle id="Circle_Middle" data-name="Circle Middle" cx="220" cy="60" r="48" fill="#f5eddc"/>
  <circle id="Circle_Inner" data-name="Circle Inner" cx="220" cy="60" r="39" fill="#f96b12"/>
  <path id="Mouth" d="M202.875,72.563c1.93,3.096,5.388,4.855,8.875,4.5,4.083-.415,7.509-2.781,8.25-7.063,.973,4.596,4.799,6.973,9,7.063,5.002,.107,7.912-4.325,8.062-4.563" fill="none" stroke="#262626" stroke-linejoin="bevel" stroke-width="2"/>
  <ellipse id="Eye_Right" data-name="Eye Right" cx="242" cy="56" rx="8.5" ry="9" fill="#252525"/>
  <ellipse id="Eye_Left" data-name="Eye Left" cx="198" cy="56" rx="8.5" ry="9" fill="#252525"/>
</svg>

<?xml version="1.0" encoding="UTF-8" standalone="no"?>
<!DOCTYPE svg PUBLIC "-//W3C//DTD SVG 1.1//EN" "http://www.w3.org/Graphics/SVG/1.1/DTD/svg11.dtd">
<svg width="100%" height="100%" viewBox="0 0 440 120" version="1.1" xmlns="http://www.w3.org/2000/svg" xmlns:xlink="http://www.w3.org/1999/xlink" xml:space="preserve" xmlns:serif="http://www.serif.com/" style="fill-rule:evenodd;clip-rule:evenodd;stroke-linejoin:round;stroke-miterlimit:2;">
    <g id="Body">
        <g id="Body_Outter" transform="matrix(1,0,0,1,-30,0)">
            <path d="M383.779,102.125C369.308,102.125 355.528,95.245 343.369,89.176C333.614,84.305 324.399,79.5 316.791,79.5L290,79.5L290,41L316.791,41C324.378,41 333.585,36.557 343.333,31.456C355.498,25.09 369.286,17.875 383.779,17.875C410.461,17.875 432.169,36.772 432.169,60C432.169,83.228 410.461,102.125 383.779,102.125Z" style="fill:rgb(29,29,29);fill-rule:nonzero;"/>
        </g>
        <g id="Body_Inner" transform="matrix(1,0,0,1,-30,0)">
            <path d="M383.779,97.875C370.311,97.875 357.008,91.234 345.271,85.375L343.849,84.665C334.172,79.823 325.033,75.25 316.79,75.25L290,75.25L290,45.25L316.79,45.25C325.426,45.25 335.205,40.506 345.303,35.222C357.034,29.083 370.33,22.125 383.779,22.125C408.118,22.125 427.919,39.116 427.919,60C427.919,80.884 408.118,97.875 383.779,97.875Z" style="fill:rgb(249,67,16);fill-rule:nonzero;"/>
        </g>
    </g>
    <circle id="Circle_Outter" cx="220" cy="60" r="52.5" style="fill:rgb(29,29,29);"/>
    <circle id="Circle_Middle" cx="220" cy="60" r="48" style="fill:rgb(245,237,220);"/>
    <circle id="Circle_Inner" cx="220" cy="60" r="39" style="fill:rgb(249,67,16);"/>
</svg>
